!!!COM: Corelli, Arcangelo
!!!OPR: Sonata da camera
!!!OPS: 4
!!!ONM: 2
!!!OMV: 4
!!!OTL: Corrente
!!!OMD: Vivace
**kern	**fb	**kern	**kern	**kern
*part4	*part4	*part3	*part2	*part1
*staff4	*	*staff3	*staff2	*staff1
*I"Organo	*	*I"Violone	*I"Violino II	*I"Violino I
*clefF4	*	*clefF4	*clefG2	*clefG2
*k[b-]	*	*k[b-]	*k[b-]	*k[b-]
*d:	*	*d:	*d:	*d:
*M3/4	*	*M3/4	*M3/4	*M3/4
=1	=1	=1	=1	=1
2.r	.	2.r	2.r	4dd
.	.	.	.	4g
.	.	.	.	4gg
=2	=2	=2	=2	=2
2.r	.	2.r	4dd	4ff#X
.	.	.	4g	2gg
.	.	.	4gg	.
=3	=3	=3	=3	=3
4D	.	4D	4ff#X	4aa
4GG	.	4GG	2gg	2bb-
[4G	.	[4G	.	.
=4	=4	=4	=4	=4
4G]	4 2	4G]	4aa	2ccc
2F#X	5	2F#X	4a	.
.	.	.	[4cc	4aa
=5	=5	=5	=5	=5
2G	5 4	2G	4cc]	4dd
.	n	.	4bn	4gg
4G	7	4G	[4dd	4ff
=6	=6	=6	=6	=6
2C	9 n	2C	4dd]	4ee-X
.	8	.	4g	4cc
4c	-	4c	[4cc	4ee-
=7	=7	=7	=7	=7
4F#X	6 5	4F#X	4cc]	2dd
4G	.	4G	4b-	.
4D	#	4D	4f#X	4cc
=8	=8	=8	=8	=8
2.E-X	5	2.E-X	2g	4b-
.	6	.	.	2cc
.	.	.	4a	.
=9	=9	=9	=9	=9
4D	#	4D	2.f#X	2.dd
4d	.	4d	.	.
4c	.	4c	.	.
=10	=10	=10	=10	=10
2.Bn	6	2.Bn	[2.dd	4dd
.	.	.	.	4gg
.	.	.	.	4ff
=11	=11	=11	=11	=11
2.c	9 -	2.c	4dd]	4ee-X
.	8	.	4cc	4cc
.	.	.	4b-	[4ee-
=12	=12	=12	=12	=12
2.F#X	-7	2.F#X	4a	4ee-]
.	6	.	[2aa	4dd
.	5	.	.	4cc
=13	=13	=13	=13	=13
2G	9	2G	4aa]	4b-
.	8	.	4gg	4cc
4BBn	5	4BBn	4ff	[4dd
=14	=14	=14	=14	=14
2C	9 n	2C	4ee	4dd]
.	8 6	.	4aa	[2cc
4C	5	4C	4gg	.
=15	=15	=15	=15	=15
4D	7 #	4D	4ff#X	4cc]
4E-X	5	4E-X	[2gg	4b-
4C	6 5	4C	.	4a
=16	=16	=16	=16	=16
4D	6 4	4D	4gg]	4b-
2DD	5 #	2DD	2ff#X	2a
=17	=17	=17	=17	=17
4GG	.	4GG	2.gg	4g
[2G	.	[2G	.	4b-
.	.	.	.	4g
=18	=18	=18	=18	=18
4G]	4 2	4G]	4r	4a
2F#X	6	2F#X	4dd	2d
.	.	.	4a	.
=19	=19	=19	=19	=19
4G	.	4G	4b-	4r
[2B-	5	[2B-	2r	4dd
.	.	.	.	4b-
=20	=20	=20	=20	=20
4B-]	-r4 2	4B-]	4r	4cc
2A	6	2A	4ff	2f
.	.	.	4cc	.
=21	=21	=21	=21	=21
4B-	.	4B-	4dd	4r
[2c	-	[2c	2r	4ee-X
.	.	.	.	4cc
=22	=22	=22	=22	=22
4c]	4 2	4c]	4r	4dd
2Bn	6	2Bn	4gg	2g
.	.	.	4dd	.
=23	=23	=23	=23	=23
4c	-	4c	4ee-X	4r
2d	#	2d	2r	4dd
.	.	.	.	4f#X
=24	=24	=24	=24	=24
2.e-X	7	2.e-X	4r	4g
.	.	.	4g	4b-
.	6	.	4a	4cc
=25	=25	=25	=25	=25
2.d	#	2.d	2.f#X	2.dd
=26:|!|:	=26:|!|:	=26:|!|:	=26:|!|:	=26:|!|:
2r	.	2r	2.r	4aa
.	.	.	.	4dd
4D	#	4D	.	4ddd
=27	=27	=27	=27	=27
2E	6	2E	2.r	4ccc
.	5	.	.	4bb-
4F#X	6	4F#X	.	4aa
=28	=28	=28	=28	=28
2G	.	2G	4dd	2.bb-
.	.	.	4g	.
4GG	.	4GG	4gg	.
=29	=29	=29	=29	=29
2D	-	2D	(4ff	4aa
.	.	.	4ee-X)	[2ddd
4d	.	4d	4dd	.
=30	=30	=30	=30	=30
2G	-6 5	2G	2.ee-X	4ddd]
.	.	.	.	2ccc
4A	-5	4A	.	.
=31	=31	=31	=31	=31
2B-	9	2B-	4dd	4ccc
.	8	.	[2ff	4bb-
4D	5	4D	.	4aa
=32	=32	=32	=32	=32
2E-X	9	2E-X	4ff]	2gg
.	8	.	4b-	.
4E-	.	4E-	[4ee-X	4gg
=33	=33	=33	=33	=33
4F	-7	4F	4ee-]	4a
4G	5	4G	4dd	[2b-
4E-X	6 5	4E-X	4cc	.
=34	=34	=34	=34	=34
4F	6 4	4F	4dd	4b-]
2FF	5 3	2FF	2cc	2a
=35	=35	=35	=35	=35
4BB-	.	4BB-	2b-	4b-
4B-	.	4B-	.	[2dd
4F	6	4F	4dd	.
=36	=36	=36	=36	=36
4G	6 5	4G	2ee	4dd]
4A	#	4A	.	2cc#X
4AA	.	4AA	4ee	.
=37	=37	=37	=37	=37
4D	.	4D	2ff	4dd
4d	.	4d	.	[2ff
4A	6	4A	4ff	.
=38	=38	=38	=38	=38
4B-	6 5	4B-	2gg	4ff]
4c	n	4c	.	2ee
4C	.	4C	4gg	.
=39	=39	=39	=39	=39
4F	-	4F	4aa-X	4ff
4E-X	6	4E-X	[2cc	4gg
4F	-	4F	.	4aa-X
=40	=40	=40	=40	=40
4G	-r6 4	4G	4cc]	4ee-X
2GG	5 n	2GG	2bn	2dd
=41	=41	=41	=41	=41
2C	-	2C	2.cc	4cc
.	.	.	.	[2ee-X
4c	.	4c	.	.
=42	=42	=42	=42	=42
2.F#X	-7	2.F#X	4a	4ee-]
.	6	.	[2aa	4dd
.	.	.	.	4cc
=43	=43	=43	=43	=43
2.G	9	2.G	4aa]	4b-
.	8	.	4gg	[2bb-
.	.	.	4ff	.
=44	=44	=44	=44	=44
2.C	7 n	2.C	4ee	4bb-]
.	6	.	[2ccc	4aa
.	.	.	.	4gg
=45	=45	=45	=45	=45
2.D	7 #	2.D	4ccc]	4ff#X
.	6	.	4bb-	[2ddd
.	.	.	4aa	.
=46	=46	=46	=46	=46
2E-X	7	2E-X	4gg	4ddd]
.	6	.	4aa	[2ccc
4C	-	4C	4gg	.
=47	=47	=47	=47	=47
4D	7 #	4D	4ff#X	4ccc]
4E-X	5	4E-X	[2gg	4bb-
4C	6 5	4C	.	4aa
=48	=48	=48	=48	=48
4D	6 4	4D	4gg]	4bb-
2DD	5 #	2DD	2ff#X	2aa
=49	=49	=49	=49	=49
2GG	.	2GG	2gg	4gg
.	.	.	.	[2dd
4BB-	.	4BB-	4d	.
=50	=50	=50	=50	=50
2C	9 n	2C	2e	4dd]
.	8	.	.	4g
4C	.	4C	4e	[4cc
=51	=51	=51	=51	=51
4D	7 #	4D	4f#X	4cc]
4E-X	5	4E-X	[2g	4b-
4C	6 5	4C	.	4a
=52	=52	=52	=52	=52
4D	6 4	4D	4g]	4b-
2DD	#	2DD	2f#X	2a
=53	=53	=53	=53	=53
2GG	.	2GG	2g	4g
.	.	.	.	[2dd
4BB-	.	4BB-	4d	.
=54	=54	=54	=54	=54
2C	9 n	2C	2e	4dd]
.	8	.	.	4g
4C	.	4C	4e	[4cc
=55	=55	=55	=55	=55
4D	7 #	4D	4f#X	4cc]
4E-X	5	4E-X	[2g	4b-
4C	6 5	4C	.	4a
=56	=56	=56	=56	=56
4D	6 4	4D	4g]	4b-
2DD	5 #	2DD	2f#X	2a
=57	=57	=57	=57	=57
2.GG	.	2.GG	2.g	2.g
=:|!	=:|!	=:|!	=:|!	=:|!
*-	*-	*-	*-	*-
!!!system-decoration: [{s1,s2},s3,s4]
!!!YEM: CC BY-NC-SA 4.0; CCARH; DCML